X: 14
M:6/8
L:1/8
Q:95
K:G
g2f g2d|e>fg f2d|B>cd e2d|cdB c2B|g2f g2d|e>fg f2d|B>cd e2d|c>BA G3||

